X: 4484
T: Bonny Anne
R: reel
M: 4/4
K: Dmajor
|:f2 ed cA AB|c2 dB cA Ae|f2 ed cA AB|cA GE FD De|
f2 ed cA AB|cd Bc AG EF|DE FG Ad dc|A2 GE ED DB:|
|:Ad dc de fg|a2 af g2 (3ABc|d2 dc df ed|cA GE ED DB|
Ad dc de fg|a2 af g2 (3ABc|g2 fg af ge|df ed cA GE|
cA GE ED DB|Ad dc de fg|a2 af g2 (3ABc|d2 dc df ed|
cA GE ED DB|Ad dc de fg|a2 af g2 fg|af ge df ed|
cA GE ED D2:|

